lib/brands/icons/google-stadia.svg

<svg xmlns="http://www.w3.org/2000/svg" fill="none" aria-hidden="true" viewBox="0 0 48 48"><g id="google-stadia-Icon"><path id="Vector" fill="url(#paint0_linear_94_19231)" d="M4.33336 18.4474C4.12001 18.6008 4 18.8475 4 19.0975V19.1041C4 19.2108 4.02334 19.3175 4.06667 19.4208L7.90033 28.1016C8.06701 28.4816 8.50038 28.6683 8.90041 28.5283C11.4073 27.6349 20.088 24.808 25.7085 26.3281C25.7085 26.3281 20.0747 26.6614 14.9742 30.6551C14.6876 30.8818 14.5909 31.2752 14.7409 31.6085C15.1543 32.5419 15.9843 34.4221 16.4544 35.4822L17.1144 37.0323C17.2711 37.399 17.7745 37.439 17.9945 37.1057C19.1846 35.3155 21.1881 34.4221 23.1149 33.6387C25.0884 32.8386 27.1486 32.2452 29.2488 31.8919C31.4823 31.5119 33.7691 31.4118 36.0293 31.6119C36.406 31.6452 36.7561 31.4118 36.8694 31.0518L38.6029 25.5247C38.7029 25.198 38.5829 24.8413 38.3029 24.6413C36.376 23.2412 28.7354 18.5508 15.3009 20.4343C15.3009 20.4343 26.7686 13.8537 41.3198 21.0876C41.7631 21.3077 42.2932 21.0743 42.4432 20.6076L43.9667 15.7339C43.9867 15.6572 44 15.5805 44 15.5005V15.4805C44 15.2038 43.8467 14.9405 43.5933 14.7971C41.7698 13.767 35.586 10.6668 27.0786 10.6668C20.558 10.6668 12.6774 12.4869 4.33336 18.4474Z"/></g><defs><linearGradient id="paint0_linear_94_19231" x1="4" x2="37.1623" y1="18.0742" y2="40.1824" gradientUnits="userSpaceOnUse"><stop stop-color="#FF4C1D"/><stop offset="1" stop-color="#9B0063"/></linearGradient></defs></svg>

<svg xmlns="http://www.w3.org/2000/svg" fill="none" aria-hidden="true" viewBox="0 0 48 48"><path fill="url(#a)" d="M4.333 18.447a.804.804 0 0 0-.333.65v.007a.81.81 0 0 0 .067.317L7.9 28.1c.167.38.6.567 1 .427 2.507-.893 11.188-3.72 16.809-2.2 0 0-5.634.333-10.735 4.327a.799.799 0 0 0-.233.953c.413.934 1.243 2.814 1.713 3.874l.66 1.55c.157.367.66.407.88.074 1.19-1.79 3.194-2.684 5.12-3.467a29.282 29.282 0 0 1 6.135-1.747c2.233-.38 4.52-.48 6.78-.28.377.033.727-.2.84-.56l1.734-5.527a.8.8 0 0 0-.3-.884c-1.927-1.4-9.568-6.09-23.002-4.207 0 0 11.468-6.58 26.019.654a.806.806 0 0 0 1.123-.48l1.524-4.874A.918.918 0 0 0 44 15.5v-.02a.79.79 0 0 0-.407-.684c-1.823-1.03-8.007-4.13-16.514-4.13-6.521 0-14.402 1.82-22.746 7.78Z"/><defs><linearGradient id="a" x1="4" x2="37.162" y1="18.074" y2="40.182" gradientUnits="userSpaceOnUse"><stop stop-color="#FF4C1D"/><stop offset="1" stop-color="#9B0063"/></linearGradient></defs></svg>
